svgs/sharp-light/window-maximize.svg

<svg xmlns="http://www.w3.org/2000/svg" viewBox="0 0 512 512"><!--! Font Awesome Pro 6.6.0 by @fontawesome - https://fontawesome.com License - https://fontawesome.com/license (Commercial License) Copyright 2024 Fonticons, Inc. --><path d="M32 64l0 128 448 0 0-128L32 64zm0 160l0 224 448 0 0-224L32 224zM0 32l32 0 448 0 32 0 0 32 0 384 0 32-32 0L32 480 0 480l0-32L0 64 0 32z"/></svg>

<svg xmlns="http://www.w3.org/2000/svg" viewBox="0 0 512 512"><!--! Font Awesome Pro 6.5.2 by @fontawesome - https://fontawesome.com License - https://fontawesome.com/license (Commercial License) Copyright 2024 Fonticons, Inc. --><path d="M32 64V192H480V64H32zm0 160V448H480V224H32zM0 32H32 480h32V64 448v32H480 32 0V448 64 32z"/></svg>
